!!!OTL: ICH HABE DEN FRUEHLING GESEHEN
!!!ARE: Europa, Mitteleuropa, Deutschland, Hessen, Wetterau
!!!SCT: E0739
!!!YEM: Copyright 1995, estate of Helmut Schaffrath.
**kern
*ICvox
*Ivox
*M6/8
*k[b-]
*F:
{8c
=1
8.a
16g
8f
8f
8g
8a
=2
8a
8g
4.r}
{8g
=3
8.g
16a
8b-
8.cc
16dd
8cc
=4
4.a
4r}
{8cc
=5
8a
8cc
8cc
8dd
8dd
8cc
=6
8cc
8b-
4.r}
{16b-
16a
=7
8.g
16a
8b-
8.cc
16dd
8cc
=8
4.a
4r}
{8cc
=9
8a
8cc
8cc
8dd
8dd
8cc
=10
8cc
8b-
4.r}
{16b-
16a
=11
8.g
16a
8b-
8.cc
16dd
8cc
=12
4.a
4r}
==
!!!AGN: Liebes - Lied, Leid, Klage, Tod
!!!ONB: ESAC (Essen Associative Code) Database: ERK2
!!!AMT: compound duple
!!!AIN: vox
!!!EED: Helmut Schaffrath
!!!EEV: 1.0
*-
